X: 1
T: La Ronde des Voyageurs
O: trad.
M: C|
L: 1/8
R: reel
K: Am
"^A"|:\
"Am"E3E A2 c2 | e4-eede | "Dm"f3f f2 a2 | "Am"e3a/2a/2 "D7"a4 ||\
"G"G4 B3d | d4"Dm/F"-dBde |
[1 "E"f3d d2 B2 | "Am"cAAB ~A2 E2 :|[2 "E"f2 d2 B2 e2 | "Am"A4 A4 |]\
[K:A]\
"^B"[|\
"A"c3c c2 e2 | "A/C#"A4-AAcd | e2a2"Cdim"g3f |
"Bm"g-geg ~f2 ec ||\
"Bm"d2zf d2c2 | "E"B-BGB EGBe | "B7"g3a gfeg | "E7"fedf ecAB |[|\
"A"c3-c c2 e2 | A4-AAcd |
e2a2 "A+/C#"g3f | "D"b4f3g || "D"a-aga "D#dim"~g2fg |\
"A/E"~f2ef "F#7"eAce | "B7"d'2b2 "E7"f3g |["Normal"  "A"afec !d.C.!A4 |]["Trans" "A"azz2f3e |]


